images/3940691.svg

<?xml version="1.0" encoding="UTF-8"?>
<svg xmlns="http://www.w3.org/2000/svg" xmlns:xlink="http://www.w3.org/1999/xlink" width="300pt" height="300pt" viewBox="0 0 300 300" version="1.1">
<defs>
<g>
<symbol overflow="visible" id="glyph0-0">
<path style="stroke:none;" d="M 0.796875 2.828125 L 0.796875 -11.28125 L 8.796875 -11.28125 L 8.796875 2.828125 Z M 1.703125 1.9375 L 7.90625 1.9375 L 7.90625 -10.390625 L 1.703125 -10.390625 Z M 1.703125 1.9375 "/>
</symbol>
<symbol overflow="visible" id="glyph0-1">
<path style="stroke:none;" d="M 6.3125 -10.59375 C 5.164062 -10.59375 4.253906 -10.164062 3.578125 -9.3125 C 2.898438 -8.457031 2.5625 -7.296875 2.5625 -5.828125 C 2.5625 -4.359375 2.898438 -3.195312 3.578125 -2.34375 C 4.253906 -1.488281 5.164062 -1.0625 6.3125 -1.0625 C 7.457031 -1.0625 8.363281 -1.488281 9.03125 -2.34375 C 9.695312 -3.195312 10.03125 -4.359375 10.03125 -5.828125 C 10.03125 -7.296875 9.695312 -8.457031 9.03125 -9.3125 C 8.363281 -10.164062 7.457031 -10.59375 6.3125 -10.59375 Z M 6.3125 -11.875 C 7.945312 -11.875 9.253906 -11.328125 10.234375 -10.234375 C 11.210938 -9.140625 11.703125 -7.671875 11.703125 -5.828125 C 11.703125 -3.984375 11.210938 -2.507812 10.234375 -1.40625 C 9.253906 -0.3125 7.945312 0.234375 6.3125 0.234375 C 4.664062 0.234375 3.351562 -0.3125 2.375 -1.40625 C 1.394531 -2.507812 0.90625 -3.984375 0.90625 -5.828125 C 0.90625 -7.671875 1.394531 -9.140625 2.375 -10.234375 C 3.351562 -11.328125 4.664062 -11.875 6.3125 -11.875 Z M 6.3125 -11.875 "/>
</symbol>
<symbol overflow="visible" id="glyph0-2">
<path style="stroke:none;" d="M 1.578125 -11.671875 L 3.15625 -11.671875 L 3.15625 -6.890625 L 8.890625 -6.890625 L 8.890625 -11.671875 L 10.46875 -11.671875 L 10.46875 0 L 8.890625 0 L 8.890625 -5.5625 L 3.15625 -5.5625 L 3.15625 0 L 1.578125 0 Z M 1.578125 -11.671875 "/>
</symbol>
</g>
</defs>
<g id="surface35101">
<rect x="0" y="0" width="300" height="300" style="fill:rgb(100%,100%,100%);fill-opacity:1;stroke:none;"/>
<path style="fill:none;stroke-width:1.2;stroke-linecap:butt;stroke-linejoin:miter;stroke:rgb(0%,0%,0%);stroke-opacity:1;stroke-miterlimit:10;" d="M 34.84375 85.902344 L 54.382812 118.785156 "/>
<path style="fill:none;stroke-width:1.2;stroke-linecap:butt;stroke-linejoin:miter;stroke:rgb(0%,0%,0%);stroke-opacity:1;stroke-miterlimit:10;" d="M 54.382812 118.785156 L 73.507812 118.546875 "/>
<path style="fill:none;stroke-width:1.2;stroke-linecap:butt;stroke-linejoin:miter;stroke:rgb(100%,0%,0%);stroke-opacity:1;stroke-miterlimit:10;" d="M 73.507812 118.546875 L 92.628906 118.308594 "/>
<path style="fill:none;stroke-width:1.2;stroke-linecap:butt;stroke-linejoin:miter;stroke:rgb(100%,0%,0%);stroke-opacity:1;stroke-miterlimit:10;" d="M 92.628906 118.308594 L 102.398438 134.75 "/>
<path style="fill:none;stroke-width:1.2;stroke-linecap:butt;stroke-linejoin:miter;stroke:rgb(0%,0%,0%);stroke-opacity:1;stroke-miterlimit:10;" d="M 102.398438 134.75 L 112.167969 151.191406 "/>
<path style=" stroke:none;fill-rule:nonzero;fill:rgb(100%,100%,100%);fill-opacity:1;" d="M 86.628906 108.808594 L 99.628906 108.808594 L 99.628906 127.808594 L 86.628906 127.808594 Z M 86.628906 108.808594 "/>
<g style="fill:rgb(100%,0%,0%);fill-opacity:1;">
  <use xlink:href="#glyph0-1" x="86.628906" y="123.660156"/>
</g>
<path style="fill:none;stroke-width:1.2;stroke-linecap:butt;stroke-linejoin:miter;stroke:rgb(0%,0%,0%);stroke-opacity:1;stroke-miterlimit:10;" d="M 108.242188 148.992188 L 98.886719 165.671875 "/>
<path style="fill:none;stroke-width:1.2;stroke-linecap:butt;stroke-linejoin:miter;stroke:rgb(100%,0%,0%);stroke-opacity:1;stroke-miterlimit:10;" d="M 98.886719 165.671875 L 89.53125 182.351562 "/>
<path style="fill:none;stroke-width:1.2;stroke-linecap:butt;stroke-linejoin:miter;stroke:rgb(0%,0%,0%);stroke-opacity:1;stroke-miterlimit:10;" d="M 116.089844 153.394531 L 106.734375 170.074219 "/>
<path style="fill:none;stroke-width:1.2;stroke-linecap:butt;stroke-linejoin:miter;stroke:rgb(100%,0%,0%);stroke-opacity:1;stroke-miterlimit:10;" d="M 106.734375 170.074219 L 97.382812 186.753906 "/>
<path style="fill:none;stroke-width:1.2;stroke-linecap:butt;stroke-linejoin:miter;stroke:rgb(0%,0%,0%);stroke-opacity:1;stroke-miterlimit:10;" d="M 112.167969 151.191406 L 150.414062 150.714844 "/>
<path style=" stroke:none;fill-rule:nonzero;fill:rgb(100%,100%,100%);fill-opacity:1;" d="M 80.457031 175.054688 L 93.457031 175.054688 L 93.457031 194.054688 L 80.457031 194.054688 Z M 80.457031 175.054688 "/>
<g style="fill:rgb(100%,0%,0%);fill-opacity:1;">
  <use xlink:href="#glyph0-1" x="80.457031" y="189.90625"/>
</g>
<path style="fill:none;stroke-width:1.2;stroke-linecap:butt;stroke-linejoin:miter;stroke:rgb(0%,0%,0%);stroke-opacity:1;stroke-miterlimit:10;" d="M 150.414062 150.714844 L 169.125 117.355469 "/>
<path style="fill:none;stroke-width:1.2;stroke-linecap:butt;stroke-linejoin:miter;stroke:rgb(0%,0%,0%);stroke-opacity:1;stroke-miterlimit:10;" d="M 160.132812 151.78125 L 175.101562 125.09375 "/>
<path style="fill:none;stroke-width:1.2;stroke-linecap:butt;stroke-linejoin:miter;stroke:rgb(0%,0%,0%);stroke-opacity:1;stroke-miterlimit:10;" d="M 169.949219 183.601562 L 150.414062 150.714844 "/>
<path style="fill:none;stroke-width:1.2;stroke-linecap:butt;stroke-linejoin:miter;stroke:rgb(0%,0%,0%);stroke-opacity:1;stroke-miterlimit:10;" d="M 169.125 117.355469 L 207.371094 116.878906 "/>
<path style="fill:none;stroke-width:1.2;stroke-linecap:butt;stroke-linejoin:miter;stroke:rgb(0%,0%,0%);stroke-opacity:1;stroke-miterlimit:10;" d="M 169.125 117.355469 L 159.355469 100.914062 "/>
<path style="fill:none;stroke-width:1.2;stroke-linecap:butt;stroke-linejoin:miter;stroke:rgb(100%,0%,0%);stroke-opacity:1;stroke-miterlimit:10;" d="M 159.355469 100.914062 L 149.585938 84.46875 "/>
<path style="fill:none;stroke-width:1.2;stroke-linecap:butt;stroke-linejoin:miter;stroke:rgb(0%,0%,0%);stroke-opacity:1;stroke-miterlimit:10;" d="M 207.371094 116.878906 L 226.90625 149.761719 "/>
<path style="fill:none;stroke-width:1.2;stroke-linecap:butt;stroke-linejoin:miter;stroke:rgb(0%,0%,0%);stroke-opacity:1;stroke-miterlimit:10;" d="M 201.585938 124.761719 L 217.214844 151.070312 "/>
<path style="fill:none;stroke-width:1.2;stroke-linecap:butt;stroke-linejoin:miter;stroke:rgb(0%,0%,0%);stroke-opacity:1;stroke-miterlimit:10;" d="M 207.371094 116.878906 L 226.082031 83.515625 "/>
<path style="fill:none;stroke-width:1.2;stroke-linecap:butt;stroke-linejoin:miter;stroke:rgb(0%,0%,0%);stroke-opacity:1;stroke-miterlimit:10;" d="M 226.90625 149.761719 L 208.195312 183.121094 "/>
<path style="fill:none;stroke-width:1.2;stroke-linecap:butt;stroke-linejoin:miter;stroke:rgb(0%,0%,0%);stroke-opacity:1;stroke-miterlimit:10;" d="M 226.90625 149.761719 L 246.03125 149.523438 "/>
<path style="fill:none;stroke-width:1.2;stroke-linecap:butt;stroke-linejoin:miter;stroke:rgb(100%,0%,0%);stroke-opacity:1;stroke-miterlimit:10;" d="M 246.03125 149.523438 L 265.15625 149.285156 "/>
<path style="fill:none;stroke-width:1.2;stroke-linecap:butt;stroke-linejoin:miter;stroke:rgb(0%,0%,0%);stroke-opacity:1;stroke-miterlimit:10;" d="M 208.195312 183.121094 L 169.949219 183.601562 "/>
<path style="fill:none;stroke-width:1.2;stroke-linecap:butt;stroke-linejoin:miter;stroke:rgb(0%,0%,0%);stroke-opacity:1;stroke-miterlimit:10;" d="M 204.261719 174.171875 L 173.664062 174.554688 "/>
<path style="fill:none;stroke-width:1.2;stroke-linecap:butt;stroke-linejoin:miter;stroke:rgb(0%,0%,0%);stroke-opacity:1;stroke-miterlimit:10;" d="M 169.949219 183.601562 L 151.238281 216.960938 "/>
<path style=" stroke:none;fill-rule:nonzero;fill:rgb(100%,100%,100%);fill-opacity:1;" d="M 253.15625 139.785156 L 278.15625 139.785156 L 278.15625 158.785156 L 253.15625 158.785156 Z M 253.15625 139.785156 "/>
<g style="fill:rgb(100%,0%,0%);fill-opacity:1;">
  <use xlink:href="#glyph0-1" x="253.15625" y="154.636719"/>
  <use xlink:href="#glyph0-2" x="265.75" y="154.636719"/>
</g>
<path style="fill:none;stroke-width:1.2;stroke-linecap:butt;stroke-linejoin:miter;stroke:rgb(0%,0%,0%);stroke-opacity:1;stroke-miterlimit:10;" d="M 226.136719 88.015625 L 245.261719 87.777344 "/>
<path style="fill:none;stroke-width:1.2;stroke-linecap:butt;stroke-linejoin:miter;stroke:rgb(100%,0%,0%);stroke-opacity:1;stroke-miterlimit:10;" d="M 245.261719 87.777344 L 264.382812 87.539062 "/>
<path style="fill:none;stroke-width:1.2;stroke-linecap:butt;stroke-linejoin:miter;stroke:rgb(0%,0%,0%);stroke-opacity:1;stroke-miterlimit:10;" d="M 226.023438 79.015625 L 245.148438 78.777344 "/>
<path style="fill:none;stroke-width:1.2;stroke-linecap:butt;stroke-linejoin:miter;stroke:rgb(100%,0%,0%);stroke-opacity:1;stroke-miterlimit:10;" d="M 245.148438 78.777344 L 264.273438 78.539062 "/>
<path style=" stroke:none;fill-rule:nonzero;fill:rgb(100%,100%,100%);fill-opacity:1;" d="M 258.328125 73.539062 L 271.328125 73.539062 L 271.328125 92.539062 L 258.328125 92.539062 Z M 258.328125 73.539062 "/>
<g style="fill:rgb(100%,0%,0%);fill-opacity:1;">
  <use xlink:href="#glyph0-1" x="258.328125" y="88.390625"/>
</g>
<path style=" stroke:none;fill-rule:nonzero;fill:rgb(100%,100%,100%);fill-opacity:1;" d="M 124.585938 74.96875 L 149.585938 74.96875 L 149.585938 93.96875 L 124.585938 93.96875 Z M 124.585938 74.96875 "/>
<g style="fill:rgb(100%,0%,0%);fill-opacity:1;">
  <use xlink:href="#glyph0-2" x="124.585938" y="89.820312"/>
  <use xlink:href="#glyph0-1" x="136.617188" y="89.820312"/>
</g>
</g>
</svg>

<svg xmlns="http://www.w3.org/2000/svg" xmlns:xlink="http://www.w3.org/1999/xlink" width="300pt" height="300pt" viewBox="0 0 300 300"><defs><symbol overflow="visible"><path d="M.797 2.828v-14.11h8V2.83zm.906-.89h6.203v-12.33H1.703zm0 0"/></symbol><symbol overflow="visible" id="a"><path d="M6.313-10.594c-1.15 0-2.06.43-2.735 1.28-.68.857-1.015 2.017-1.015 3.486 0 1.47.335 2.633 1.015 3.484.676.856 1.586 1.28 2.735 1.28 1.144.002 2.05-.424 2.718-1.28.665-.85 1-2.015 1-3.484 0-1.47-.335-2.63-1-3.484-.667-.852-1.573-1.282-2.717-1.282zm0-1.28c1.632 0 2.94.546 3.92 1.64.978 1.093 1.47 2.562 1.47 4.406 0 1.844-.492 3.32-1.47 4.422-.98 1.093-2.288 1.64-3.92 1.64-1.65 0-2.96-.546-3.938-1.64-.98-1.102-1.47-2.578-1.47-4.422 0-1.844.49-3.313 1.47-4.406.977-1.094 2.29-1.64 3.938-1.64zm0 0"/></symbol><symbol overflow="visible" id="b"><path d="M1.578-11.672h1.578v4.78H8.89v-4.78h1.58V0H8.89v-5.563H3.157V0H1.578zm0 0"/></symbol></defs><g><path fill="#fff" d="M0 0h300v300H0z"/><path d="M34.844 85.902l19.54 32.883M54.383 118.785l19.125-.238" stroke-width="1.2" stroke="#000" stroke-miterlimit="10" fill="none"/><path d="M73.508 118.547l19.12-.238M92.63 118.31l9.768 16.44" stroke-width="1.2" stroke="#f00" stroke-miterlimit="10" fill="none"/><path d="M102.398 134.75l9.77 16.44" stroke-width="1.2" stroke="#000" stroke-miterlimit="10" fill="none"/><path d="M86.63 108.81h13v19h-13zm0 0" fill="#fff"/><use xlink:href="#a" x="86.629" y="123.66" fill="#f00"/><path d="M108.242 148.992l-9.355 16.68" stroke-width="1.2" stroke="#000" stroke-miterlimit="10" fill="none"/><path d="M98.887 165.672l-9.356 16.68" stroke-width="1.2" stroke="#f00" stroke-miterlimit="10" fill="none"/><path d="M116.09 153.395l-9.356 16.68" stroke-width="1.2" stroke="#000" stroke-miterlimit="10" fill="none"/><path d="M106.734 170.074l-9.35 16.68" stroke-width="1.2" stroke="#f00" stroke-miterlimit="10" fill="none"/><path d="M112.168 151.19l38.246-.475" stroke-width="1.2" stroke="#000" stroke-miterlimit="10" fill="none"/><path d="M80.457 175.055h13v19h-13zm0 0" fill="#fff"/><use xlink:href="#a" x="80.457" y="189.906" fill="#f00"/><path d="M150.414 150.715l18.71-33.36M160.133 151.78l14.97-26.686M169.95 183.602l-19.536-32.887M169.125 117.355l38.246-.476M169.125 117.355l-9.77-16.44" stroke-width="1.2" stroke="#000" stroke-miterlimit="10" fill="none"/><path d="M159.355 100.914l-9.77-16.445" stroke-width="1.2" stroke="#f00" stroke-miterlimit="10" fill="none"/><path d="M207.37 116.88l19.536 32.882M201.586 124.762l15.63 26.308M207.37 116.88l18.712-33.364M226.906 149.762l-18.71 33.36M226.906 149.762l19.125-.24" stroke-width="1.2" stroke="#000" stroke-miterlimit="10" fill="none"/><path d="M246.03 149.523l19.126-.238" stroke-width="1.2" stroke="#f00" stroke-miterlimit="10" fill="none"/><path d="M208.195 183.12l-38.246.482M204.262 174.172l-30.598.383M169.95 183.602l-18.712 33.36" stroke-width="1.2" stroke="#000" stroke-miterlimit="10" fill="none"/><path d="M253.156 139.785h25v19h-25zm0 0" fill="#fff"/><g fill="#f00"><use xlink:href="#a" x="253.156" y="154.637"/><use xlink:href="#b" x="265.75" y="154.637"/></g><path d="M226.137 88.016l19.125-.24" stroke-width="1.2" stroke="#000" stroke-miterlimit="10" fill="none"/><path d="M245.262 87.777l19.12-.238" stroke-width="1.2" stroke="#f00" stroke-miterlimit="10" fill="none"/><path d="M226.023 79.016l19.125-.24" stroke-width="1.2" stroke="#000" stroke-miterlimit="10" fill="none"/><path d="M245.148 78.777l19.125-.238" stroke-width="1.2" stroke="#f00" stroke-miterlimit="10" fill="none"/><path d="M258.328 73.54h13v19h-13zm0 0" fill="#fff"/><use xlink:href="#a" x="258.328" y="88.391" fill="#f00"/><path d="M124.586 74.97h25v19h-25zm0 0" fill="#fff"/><g fill="#f00"><use xlink:href="#b" x="124.586" y="89.82"/><use xlink:href="#a" x="136.617" y="89.82"/></g></g></svg>
